pix_core/e/page_break.svg

<!DOCTYPE svg PUBLIC "-//W3C//DTD SVG 1.1//EN" "http://www.w3.org/Graphics/SVG/1.1/DTD/svg11.dtd" [
	<!ENTITY ns_flows "http://ns.adobe.com/Flows/1.0/">
]><svg xmlns="http://www.w3.org/2000/svg" width="16" height="16" viewBox="0 0 16 16" preserveAspectRatio="xMinYMid meet" overflow="visible"><path d="M14 10l-.2 6h-.5l-.3-5h-10l-.2 5h-.6l-.2-6h12zm0-1h2v-1h-2v1zm-4-1v1h3v-1h-3zm-3 1h2v-1h-2v1zm-4 0h3v-1h-3v1zm-3 0h2v-1h-2v1zm13.8-9h-.5l-.3 6h-10l-.2-6h-.6l-.2 7h12l-.2-7z" fill="#999"/></svg>

<!DOCTYPE svg PUBLIC "-//W3C//DTD SVG 1.1//EN" "http://www.w3.org/Graphics/SVG/1.1/DTD/svg11.dtd" [
	<!ENTITY ns_flows "http://ns.adobe.com/Flows/1.0/">
]><svg xmlns="http://www.w3.org/2000/svg" width="16" height="16" viewBox="0 0 16 16" preserveAspectRatio="xMinYMid meet" overflow="visible"><path d="M14 10l-.2 6h-.5l-.3-5H3l-.2 5h-.6L2 10h12zm0-1h2V8h-2v1zm-4-1v1h3V8h-3zM7 9h2V8H7v1zM3 9h3V8H3v1zM0 9h2V8H0v1zm13.8-9h-.5L13 6H3l-.2-6h-.6L2 7h12l-.2-7z" fill="#999"/></svg>
